packages/icons/src/db-update-sql.svg

<svg  viewBox="0 0 15 21" fill="none" xmlns="http://www.w3.org/2000/svg">
<path d="M14.125 13.0981C14.125 14.2168 11.2848 15.1238 7.78125 15.1238C4.27771 15.1238 1.4375 14.2168 1.4375 13.0981" stroke="currentColor" stroke-miterlimit="10" stroke-linecap="square" fill-opacity="0"/>
<path d="M14.125 8.37196V8.03434V18.2696C14.125 19.3251 11.2703 20.1888 7.78125 20.1888C4.29219 20.1888 1.4375 19.3251 1.4375 18.2696V8.03434V8.37196" stroke="currentColor" stroke-miterlimit="10" stroke-linecap="square" fill-opacity="0"/>
<path d="M12.375 6.63623C13.4593 6.99969 14.125 7.49167 14.125 8.03329C14.125 9.15207 11.2848 10.059 7.78125 10.059C4.27771 10.059 1.4375 9.15207 1.4375 8.03329C1.4375 7.49167 2.10317 6.99969 3.1875 6.63623" stroke="currentColor" stroke-miterlimit="10" stroke-linecap="round" fill-opacity="0"/>
<path d="M4.94305 4.39307C4.94305 6.06042 6.29445 7.41182 7.9618 7.41182C8.57914 7.41182 9.1527 7.22667 9.63067 6.90869" stroke="currentColor" stroke-linecap="round" stroke-linejoin="round" fill-opacity="0"/>
<path d="M10.0999 4.39307L10.9804 5.39932L11.8609 4.39307H10.0999Z" fill="currentColor" stroke="currentColor" stroke-linecap="round" stroke-linejoin="round" fill-opacity="0"/>
<path d="M10.9803 4.39375C10.9803 2.72639 9.62895 1.375 7.96159 1.375C7.34426 1.375 6.77069 1.56015 6.29272 1.87813" stroke="currentColor" stroke-linecap="round" stroke-linejoin="round" fill-opacity="0"/>
<path d="M5.82344 4.39443L4.94297 3.38818L4.0625 4.39443H5.82344Z"  stroke="currentColor" stroke-linecap="round" stroke-linejoin="round" fill-opacity="0"/>
</svg>

<svg xmlns="http://www.w3.org/2000/svg" fill="none" fill-opacity="0" viewBox="0 0 15 21"><path stroke="currentColor" stroke-linecap="square" stroke-miterlimit="10" d="M14.125 13.098c0 1.119-2.84 2.026-6.344 2.026-3.503 0-6.343-.907-6.343-2.026"/><path stroke="currentColor" stroke-linecap="square" stroke-miterlimit="10" d="M14.125 8.372v-.338V18.27c0 1.055-2.855 1.919-6.344 1.919s-6.343-.864-6.343-1.92V8.035v.338"/><path stroke="currentColor" stroke-linecap="round" stroke-miterlimit="10" d="M12.375 6.636c1.084.364 1.75.856 1.75 1.397 0 1.12-2.84 2.026-6.344 2.026-3.503 0-6.343-.907-6.343-2.026 0-.541.665-1.033 1.75-1.397"/><path stroke="currentColor" stroke-linecap="round" stroke-linejoin="round" d="M4.943 4.393A3.019 3.019 0 0 0 9.631 6.91"/><path fill="none" stroke="currentColor" stroke-linecap="round" stroke-linejoin="round" d="m10.1 4.393.88 1.006.88-1.006z"/><path stroke="currentColor" stroke-linecap="round" stroke-linejoin="round" d="M10.98 4.394a3.019 3.019 0 0 0-4.687-2.516M5.823 4.394l-.88-1.006-.88 1.006z"/></svg>
